public/resource/img/game/type/content.svg

<svg xmlns="http://www.w3.org/2000/svg" xmlns:xlink="http://www.w3.org/1999/xlink" width="48" height="48" viewBox="0 0 48 48">
  <defs>
    <path id="question-type---slide-a" d="M21.7042232,19.2578982 L24.3109647,19.0492889 L24.0739882,24.8903485 L21.9411997,24.8903485 L21.7042232,19.2578982 Z M22.6606139,17.8823633 C21.8382985,17.7327826 21.4888611,16.994823 21.6267894,16.1879864 C21.7647176,15.3811499 22.3377809,14.8109689 23.1601042,14.9605047 C23.9824195,15.1100854 24.3318569,15.848045 24.1939287,16.6548815 C24.0560004,17.4617181 23.4829371,18.0318991 22.6606139,17.8823633 Z"/>
  </defs>
  <g fill="none" fill-rule="evenodd">
    <path fill="#F2F2F2" d="M23.9995735,44 L23.9995735,44 C12.9545735,44 3.99957352,35.046 3.99957352,24 C3.99957352,12.955 12.9545735,4 23.9995735,4 C35.0455735,4 43.9995735,12.955 43.9995735,24 C43.9995735,35.046 35.0455735,44 23.9995735,44"/>
    <path fill="#333" d="M47.3735735,34.7017 L5.42757352,41.8207 C5.01857352,41.8897 4.63057352,41.6147 4.56157352,41.2047 L0.0105735194,14.1637 C-0.0584264806,13.7547 0.217573519,13.3677 0.625573519,13.2987 L42.5725735,6.1797 C42.9805735,6.1107 43.3685735,6.3867 43.4365735,6.7947 L47.9895735,33.8367 C48.0585735,34.2447 47.7825735,34.6327 47.3735735,34.7017"/>
    <path fill="#1368CE" d="M45.7300735,32.4532 L6.24307352,39.1562 C6.02107352,39.1932 5.81207352,39.0472 5.77407352,38.8282 L1.80107352,15.2252 C1.76507352,15.0072 1.91507352,14.8002 2.13707352,14.7632 L41.6240735,8.0592 C41.8460735,8.0222 42.0560735,8.1692 42.0930735,8.3872 L46.0660735,31.9902 C46.1030735,32.2082 45.9520735,32.4152 45.7300735,32.4532"/>
    <path fill="#F2F2F2" d="M44.0122735,30.8047 L7.32027352,36.9947 C7.11427352,37.0297 6.93927352,37.0147 6.93027352,36.9607 L5.95298614,31.1617 C5.94527352,31.1087 6.10527352,31.0367 6.31127352,31.0017 L43.0032735,24.8117 C43.2102735,24.7767 43.3842735,24.7917 43.3932735,24.8457 L44.3692735,30.6447 C44.3792735,30.6987 44.2192735,30.7697 44.0122735,30.8047"/>
    <polygon fill="#FFF" points="18.863 13.283 15.094 21.888 23.16 27.283 31.094 22.723 27.722 13.283" transform="rotate(-10 23.094 20.283)"/>
    <use fill="#333" transform="rotate(-10 22.954 19.913)" xlink:href="#question-type---slide-a"/>
  </g>
</svg>

<svg xmlns="http://www.w3.org/2000/svg" xmlns:xlink="http://www.w3.org/1999/xlink" width="48" height="48"><defs><path id="a" d="M21.704 19.258l2.607-.209-.237 5.841h-2.133l-.237-5.632zm.957-1.376c-.823-.15-1.172-.887-1.034-1.694.138-.807.71-1.377 1.533-1.227.822.15 1.172.887 1.034 1.694-.138.807-.711 1.377-1.533 1.227z"/></defs><g fill="none" fill-rule="evenodd"><path fill="#F2F2F2" d="M24 44C12.955 44 4 35.046 4 24 4 12.955 12.955 4 24 4c11.046 0 20 8.955 20 20 0 11.046-8.954 20-20 20"/><path fill="#333" d="M47.374 34.702L5.428 41.82a.751.751 0 01-.866-.616L.01 14.164a.75.75 0 01.615-.865l41.947-7.12a.75.75 0 01.864.616l4.553 27.042a.751.751 0 01-.616.865"/><path fill="#1368CE" d="M45.73 32.453L6.243 39.156a.405.405 0 01-.469-.328L1.801 15.225a.404.404 0 01.336-.462L41.624 8.06a.406.406 0 01.47.328l3.972 23.603a.405.405 0 01-.336.463"/><path fill="#F2F2F2" d="M44.012 30.805L7.32 36.995c-.206.035-.38.02-.39-.034l-.977-5.8c-.008-.052.152-.124.358-.16l36.692-6.19c.207-.034.381-.02.39.035l.976 5.799c.01.054-.15.125-.357.16"/><path fill="#FFF" d="M17.712 14.124l-2.218 9.129 8.88 3.912 7.022-5.868-4.96-8.711z"/><use fill="#333" transform="rotate(-10 22.954 19.913)" xlink:href="#a"/></g></svg>
